X: 9
T:Aunt Mary's Canadian Jig
% Nottingham Music Database
S:Ms L Dolman, via EF
M:6/8
K:D
A|"D"f2f fga|d2d dcB|"D"ABA "B7"AGF|"Em"E2E E2A|
"A7"e2e efg|e2d c2B|ABA ABA|"D"F3 F2:|
A|"D"ABA fgf|e2d d2z|"D"AFA "B7"BcB|"Em"A2G G2z|
"A7"GFG efe|d2c c2B|ABA ABc|"D"d3 d2:|<end>
<start>
